!!!COM:	Compere, Loyset
!!!CDT:	~1445///-1518/08/16
!!!OTL:	Pleut or a Dieu que n'aymasse jamais
!!!AGN:	Song; Chanson
!!!SCT:	Com3030
!!!SCA:	Com3030
!!!voices:	3
**kern	**kern	**kern
*staff3	*staff2	*staff1
*Ivox	*Ivox	*Ivox
*I"Bassus	*I"Tenor	*I"Superius
*I'B	*I'T	*I'S
*clefF4	*clefGv2	*clefG2
*k[]	*k[]	*k[]
*M2/1	*M2/1	*M2/1
*met(C|)	*met(C|)	*met(C|)
=1-	=1-	=1-
0A	0r	0e
=2	=2	=2
1G	0r	1g
1E	.	1g
=3	=3	=3
1F	0c	1a
2E	.	2g
[2F	.	[2a
=4	=4	=4
2F]	1c	2a]
4E	.	4g
4D	.	4f
1C	1c	[1e
=5	=5	=5
1r	1.c	1e]
1C	.	1e
.	4d	.
.	4e	.
=6	=6	=6
2D	1f	1d
2.BB-	.	.
.	1f	1d
4C	.	.
2D	.	.
=7	=7	=7
2E	1.e	2.g
1C	.	.
.	.	8aL
.	.	8bJ
.	.	2cc
[2G	2d	[2b
=8	=8	=8
2G]	2e	4b]
.	.	4a
2A	2c	1a
1E	1B	.
.	.	2g#i
=9	=9	=9
2r	2.A	0a
1F	.	.
.	4B	.
.	2c	.
4E	2d	.
4D	.	.
=10	=10	=10
2C	2e	1r
1D	1f	.
.	.	1a
4C	4e	.
4BB	4d	.
=11	=11	=11
2AA	1e	1cc
1A	.	.
.	1A	1cc
4G	.	.
4F	.	.
=12	=12	=12
1G	2r	1b
.	1d	.
1F	.	1a
.	2c	.
=13	=13	=13
2r	2A	1a
2.C	1c	.
.	.	1g
4D	.	.
2E	2B	.
=14	=14	=14
2F	2A	2a
2D	1d	4g
.	.	4f
1A	.	1e
.	2c	.
=15	=15	=15
2r	2B	2d
2.AA	1c	1e
4BB	.	.
4C	4B	4d
4D	4A	4c
=16	=16	=16
2E	2G	2B
2F	1A	2A
1E	.	1B
.	2G#i	.
=17	=17	=17
2AA	0A	1A
1D	.	.
.	.	1r
2C	.	.
=18	=18	=18
2AA	0c	1e
2.C	.	.
.	.	1g
4D	.	.
[2E	.	.
=19	=19	=19
2E]	1G	1g
2D	.	.
1BB	2r	1d
.	2G	.
=20	=20	=20
2AA	2A	2r
2D	2B	2d
2C	2c	2e
2F	[2d	2f
=21	=21	=21
2E	4d]	2g
.	4c	.
2C	1c	4f
.	.	4e
1G	.	1d
.	2B	.
=22	=22	=22
2r	1c	1c
2.C	.	.
.	2r	1g
4D	.	.
2E	[2c	.
=23	=23	=23
2AA	2c]	2a
2D	2d	2b
2C	2e	2cc
[2BB-	2f	[2dd
=24	=24	=24
2BB-]	2g	4dd]
.	.	4cc
2C	4f	1cc
.	4e	.
1G	1d	.
.	.	2b
=25	=25	=25
2C	0c	1cc
2.F	.	.
.	.	2r
4G	.	.
[2A	.	2cc
=26	=26	=26
4A]	1r	1a
4G	.	.
4F	.	.
4E	.	.
1F	1c	1a
=27	=27	=27
1E	1e	2g
.	.	4a
.	.	4b
1C	1e	1cc
=28	=28	=28
2G	1d	2b
2D	.	1a
2.A	2c	.
.	[2A	4g
4B	.	4f
=29	=29	=29
2c	2A]	0e
2G	2B	.
1A	2c	.
.	2A	.
=30	=30	=30
2.E	1G	2r
.	.	2.e
4F	.	.
2G	2r	.
.	.	4f
[2C	[2c	2g
=31	=31	=31
4C]	2c]	2a
4D	.	.
2E	2B	2g
1AA	2A	1cc
.	[2e	.
=32	=32	=32
0E	2e]	2b
.	4d	1a
.	4c	.
.	1B	.
.	.	2g#i
=33	=33	=33
0AAl	0Al	0al
==	==	==
*-	*-	*-
!!!RDF**kern: l=long note in original notation
!!!RDF**kern: i=editorial accidental
!!!ENC:	Megan K. Eagen 2013/12/01
!!!END:	2013/12/01/
!!!EED:	Jesse Rodin
!!!EEV:	2014/02/23/
!!!ONB:	Translated from MusicXML and edited on 2014/02/23/ by Craig Sapp
!!muse2ps: C^@{COM}^i2I150v95,95,150Q16
